packages/foundations/assets/icons/functional/images/notification/information_circle_filled.svg

<svg xmlns="http://www.w3.org/2000/svg" width="32" height="32" fill="none"><path fill="#1A1C1F" fill-rule="evenodd" d="M14.72 2.06c-1.337.16-2.192.345-3.214.694a14 14 0 0 0-9.108 9.958 13.97 13.97 0 0 0 2.111 11.263c1.513 2.162 3.665 3.918 6.004 4.898 1.813.759 3.549 1.111 5.487 1.111 2.014 0 3.907-.403 5.746-1.224 3.133-1.398 5.81-4.13 7.127-7.273.76-1.814 1.111-3.55 1.11-5.487-.001-2.779-.782-5.401-2.282-7.665a14.06 14.06 0 0 0-9.621-6.178c-.537-.084-2.898-.153-3.36-.097m1.787 6.194c.25.13.561.443.7.706s.139 1.017 0 1.28c-.586 1.11-2.116 1.129-2.688.034-.118-.226-.143-.344-.143-.674s.025-.448.143-.674c.168-.321.498-.622.808-.736.305-.113.901-.081 1.18.064m-.146 4.842c.236.098.417.26.537.477.08.144.09.531.104 3.8l.015 3.64 1.105.002c1.287.001 1.443.04 1.701.43.124.187.15.285.15.555 0 .415-.186.73-.523.883-.212.096-.394.101-3.45.101s-3.238-.005-3.45-.101c-.337-.153-.523-.468-.523-.883 0-.27.026-.368.15-.555.258-.39.414-.429 1.703-.43l1.107-.002v-5.76l-.974-.001c-1.234-.001-1.447-.078-1.664-.599a.99.99 0 0 1 .174-1.071c.267-.282.357-.302 1.354-.303.8-.001.987-.019 1.403-.129.574-.152.817-.164 1.081-.054"/></svg>

<svg width="32" height="32" viewBox="0 0 32 32" fill="none" xmlns="http://www.w3.org/2000/svg"><path d="M14.720 2.060 C 13.383 2.220,12.528 2.405,11.506 2.754 C 6.953 4.310,3.537 8.044,2.398 12.712 C 1.455 16.573,2.232 20.722,4.509 23.975 C 6.022 26.137,8.174 27.893,10.513 28.873 C 12.326 29.632,14.062 29.984,16.000 29.984 C 18.014 29.984,19.907 29.581,21.746 28.760 C 24.879 27.362,27.556 24.630,28.873 21.487 C 29.633 19.673,29.984 17.937,29.983 16.000 C 29.982 13.221,29.201 10.599,27.701 8.335 C 25.479 4.983,22.049 2.781,18.080 2.157 C 17.543 2.073,15.182 2.004,14.720 2.060 M16.507 8.254 C 16.757 8.384,17.068 8.697,17.207 8.960 C 17.346 9.223,17.346 9.977,17.207 10.240 C 16.621 11.350,15.091 11.369,14.519 10.274 C 14.401 10.048,14.376 9.930,14.376 9.600 C 14.376 9.270,14.401 9.152,14.519 8.926 C 14.687 8.605,15.017 8.304,15.327 8.190 C 15.632 8.077,16.228 8.109,16.507 8.254 M16.361 13.096 C 16.597 13.194,16.778 13.356,16.898 13.573 C 16.978 13.717,16.988 14.104,17.002 17.373 L 17.017 21.013 18.122 21.015 C 19.409 21.016,19.565 21.055,19.823 21.445 C 19.947 21.632,19.973 21.730,19.973 22.000 C 19.973 22.415,19.787 22.730,19.450 22.883 C 19.238 22.979,19.056 22.984,16.000 22.984 C 12.944 22.984,12.762 22.979,12.550 22.883 C 12.213 22.730,12.027 22.415,12.027 22.000 C 12.027 21.730,12.053 21.632,12.177 21.445 C 12.435 21.055,12.591 21.016,13.880 21.015 L 14.987 21.013 14.987 18.133 L 14.987 15.253 14.013 15.252 C 12.779 15.251,12.566 15.174,12.349 14.653 C 12.191 14.276,12.259 13.862,12.523 13.582 C 12.790 13.300,12.880 13.280,13.877 13.279 C 14.677 13.278,14.864 13.260,15.280 13.150 C 15.854 12.998,16.097 12.986,16.361 13.096 " fill="#1A1C1F" stroke="none" fill-rule="evenodd"></path></svg>
